X: 35497
T: Rubber Man, The
R: reel
M: 4/4
K: Dmajor
fddd Adde|fddd afga|fddd AddA|Bddd cdeg|fddd Adde|
fddd afga|1 fddB GABd|cde(c c)dde:|2 fddA GABd|cdec d2de||
fddd afga|fgef Bcde|fddB GBBG|Acce fece|
fddd afga|fgef Bcde|GBBB Accf|1 agB(c c)d2e:|2 agBc d2de||
fddd addg|ddad gdfd|fddB ddAd|dBdd cdeg|
fddd addg|ddad gdfd|fddB GABd|1 cdec d3e:|2 cdec d4||
adda ddad|Bdd(c c)def|addB ddAd|dBdd cdef|
addg ddfd|dadg dfdA|GBBB Accf|agBc d3e||

